assets/media/icons/ParaView.svg

<?xml version="1.0" standalone="no"?>
<!DOCTYPE svg PUBLIC "-//W3C//DTD SVG 1.0//EN" "http://www.w3.org/TR/2001/REC-SVG-20010904/DTD/svg10.dtd">
<svg xmlns="http://www.w3.org/2000/svg" xmlns:xlink="http://www.w3.org/1999/xlink" id="body_1" width="1024" height="768">

<g transform="matrix(1.4301676 0 0 1.4301676 -0 249.56425)">
	<g>
	</g>
	<g>
		<g>
            <path d="M221.5 110.3L215.3 139.6L199.8 139.6L216.2 62.500008L236.59999 62.500008C 246.79999 62.500008 254.09999 64.40001 258.59998 68.30001C 263.09998 72.20001 264.49997 78.10001 262.8 86.100006C 261.19998 93.700005 257.4 99.600006 251.4 103.90001C 245.4 108.20001 238 110.30001 229.2 110.30001L229.2 110.30001L221.5 110.30001L221.5 110.3zM224.1 98.2L230.40001 98.2C 234.70001 98.2 238.3 97.2 241.20001 95.1C 244.10002 93 246.00002 90 246.80002 86.2C 247.50002 82.7 246.80002 80 244.70001 77.899994C 242.50002 75.799995 239.40001 74.799995 235.40001 74.799995L235.40001 74.799995L229.1 74.799995L224.1 98.2z" stroke="none" fill="#172C36" fill-rule="nonzero" />
            <path d="M297.1 130.3C 293.9 134.40001 290.5 137.2 287 138.7C 283.5 140.2 280.2 140.9 277.1 140.9C 271.1 140.9 266.7 139.29999 263.80002 136C 260.90002 132.7 259.90002 128.7 260.90002 124C 262.30002 117.6 265.60004 112.7 271.00003 109.4C 276.40002 106.1 283.60004 104.4 292.80002 104.4L292.80002 104.4L301.90002 104.4L302.2 103.200005C 303.1 99.200005 302.5 96.3 300.7 94.600006C 298.80002 92.90001 295.80002 92.100006 291.80002 92.100006C 288.7 92.100006 285.50003 92.700005 282.1 93.90001C 278.7 95.100006 275.7 96.600006 273.1 98.50001L273.1 98.50001L275.4 85.600006C 277.5 84.600006 280.8 83.600006 285.19998 82.700005C 289.59998 81.8 293.3 81.3 296.4 81.3C 305 81.3 310.8 83.3 313.8 87.200005C 316.8 91.100006 317.3 97.4 315.5 106.100006L315.5 106.100006L312.3 121.3C 311.19998 126.3 310.5 130.6 310 134.2C 309.5 137.8 309.3 139.59999 309.4 139.59999L309.4 139.59999L296.1 139.59999C 296 139.59999 296 138.7 296.2 136.9C 296.1 135.1 296.5 132.9 297.1 130.3zM299.7 114.3L299.90002 113.3L293.2 113.3C 287.7 113.4 283.5 114.3 280.6 115.8C 277.7 117.3 275.9 119.700005 275.30002 122.8C 274.80002 125.100006 275.2 126.9 276.50003 128.2C 277.80002 129.5 280.00003 130.09999 283.00003 130.09999C 287.30002 130.09999 291.00003 128.59999 293.90002 125.49999C 296.9 122.3 298.8 118.6 299.7 114.3z" stroke="none" fill="#172C36" fill-rule="nonzero" />
            <path d="M337.6 139.6L322.9 139.6L335 82.7L348.1 82.7L345.30002 95.799995C 347.80002 90.7 350.80002 86.99999 354.30002 84.799995C 357.80002 82.49999 361.2 81.399994 364.50003 81.399994L364.50003 81.399994L368.60004 81.799995L365.40002 96.7C 364.90002 96.399994 364.10004 96.1 363.10004 95.899994C 362.10004 95.59999 360.80005 95.49999 359.10004 95.49999C 354.90002 95.49999 351.40002 97.299995 348.70004 100.899994C 346.00003 104.49999 343.90005 109.399994 342.60004 115.799995L342.60004 115.799995L337.6 139.6z" stroke="none" fill="#172C36" fill-rule="nonzero" />
            <path d="M401.5 130.3C 398.3 134.40001 394.9 137.2 391.4 138.7C 387.9 140.2 384.6 140.9 381.5 140.9C 375.5 140.9 371.1 139.29999 368.2 136C 365.30002 132.7 364.30002 128.7 365.30002 124C 366.7 117.6 370.00003 112.7 375.40002 109.4C 380.80002 106.1 388.00003 104.4 397.2 104.4L397.2 104.4L406.30002 104.4L406.6 103.200005C 407.5 99.200005 406.9 96.3 405.1 94.600006C 403.2 92.90001 400.2 92.100006 396.2 92.100006C 393.1 92.100006 389.90002 92.700005 386.5 93.90001C 383.1 95.100006 380.1 96.600006 377.5 98.50001L377.5 98.50001L379.8 85.600006C 381.9 84.600006 385.19998 83.600006 389.59998 82.700005C 393.99997 81.8 397.69998 81.3 400.8 81.3C 409.4 81.3 415.19998 83.3 418.19998 87.200005C 421.19998 91.100006 421.69998 97.4 419.9 106.100006L419.9 106.100006L416.69998 121.3C 415.59998 126.3 414.9 130.6 414.4 134.2C 413.9 137.8 413.69998 139.59999 413.8 139.59999L413.8 139.59999L400.5 139.59999C 400.4 139.59999 400.4 138.7 400.6 136.9C 400.5 135.1 400.9 132.9 401.5 130.3zM404.1 114.3L404.30002 113.3L397.6 113.3C 392.1 113.4 387.9 114.3 385 115.8C 382.1 117.3 380.3 119.700005 379.7 122.8C 379.2 125.100006 379.6 126.9 380.90002 128.2C 382.2 129.5 384.40002 130.09999 387.40002 130.09999C 391.7 130.09999 395.40002 128.59999 398.30002 125.49999C 401.2 122.3 403.2 118.6 404.1 114.3z" stroke="none" fill="#172C36" fill-rule="nonzero" />
            <path d="M492.9 62.5L508.3 62.5L466 139.6L447 139.6L436.9 62.500008L453.5 62.500008L460.4 123.600006L492.9 62.5z" stroke="none" fill="#172C36" fill-rule="nonzero" />
            <path d="M515.8 139.6L501 139.6L513.1 82.700005L527.89996 82.700005L515.8 139.6zM515.3 72.3L518.3 58.200005L533.1 58.200005L530.1 72.3L515.3 72.3z" stroke="none" fill="#172C36" fill-rule="nonzero" />
            <path d="M577.7 136.4C 574.9 137.79999 571.9 138.9 568.60004 139.7C 565.30005 140.5 561.80005 140.9 558.10004 140.9C 548.2 140.9 541.2 138.29999 537.00006 133.2C 532.80005 128 531.80005 120.6 533.80005 111C 535.7001 102.1 539.60004 94.9 545.50006 89.5C 551.4001 84.1 558.4001 81.4 566.4001 81.4C 576.00006 81.4 582.2001 84.3 585.2001 90.1C 588.2001 95.9 588.4001 104.5 586.1001 115.7L586.1001 115.7L546.7001 115.7C 546.6001 119.799995 547.2001 122.799995 548.6001 125C 550.8001 128.4 554.6001 130.1 560.1001 130.1C 564.1001 130.1 568.1001 129.3 572.1001 127.8C 576.1001 126.3 578.8001 125.100006 580.3001 124.200005L580.3001 124.200005L577.7 136.4zM548.8 105.6L574.3 105.6C 575 101.299995 574.5 98 572.89996 95.7C 571.3 93.399994 568.6 92.2 564.89996 92.2C 560.6 92.2 556.89996 93.899994 553.8 97.2C 551.8 99.2 550.2 102 548.8 105.6z" stroke="none" fill="#172C36" fill-rule="nonzero" />
            <path d="M655.6 82.7L659.19995 125.1L680 82.7L694.1 82.7L664.69995 139.6L647.1 139.6L644.1 95.600006L622.5 139.6L605.6 139.6L598.5 82.700005L614.2 82.700005L617.9 125.200005L638.5 82.700005L655.6 82.700005L655.6 82.7z" stroke="none" fill="#172C36" fill-rule="nonzero" />
		</g>
        <path d="M61.6 154.4L24.2 154.4L54.9 38L92.4 38L61.6 154.4" stroke="none" fill="#BE2128" fill-rule="nonzero" />
        <path d="M108.1 154.4L70.7 154.4L101.5 38L138.9 38L108.1 154.4" stroke="none" fill="#249847" fill-rule="nonzero" />
        <path d="M154.7 154.4L117.3 154.4L148 38L185.5 38L154.7 154.4" stroke="none" fill="#064F8C" fill-rule="nonzero" />
	</g>
</g>
</svg>

<?xml version="1.0" encoding="UTF-8"?> <!-- Generator: Adobe Illustrator 22.0.1, SVG Export Plug-In . SVG Version: 6.00 Build 0) --> <svg xmlns="http://www.w3.org/2000/svg" xmlns:xlink="http://www.w3.org/1999/xlink" x="0px" y="0px" viewBox="0 0 716 188" xml:space="preserve"> <g id="LogoMark"> </g> <g id="Kitware"> <g> <path fill="#172C36" d="M221.5,110.3l-6.2,29.3h-15.5l16.4-77.1h20.4c10.2,0,17.5,1.9,22,5.8c4.5,3.9,5.9,9.8,4.2,17.8 c-1.6,7.6-5.4,13.5-11.4,17.8c-6,4.3-13.4,6.4-22.2,6.4H221.5z M224.1,98.2h6.3c4.3,0,7.9-1,10.8-3.1s4.8-5.1,5.6-8.9 c0.7-3.5,0-6.2-2.1-8.3c-2.2-2.1-5.3-3.1-9.3-3.1h-6.3L224.1,98.2z"></path> <path fill="#172C36" d="M297.1,130.3c-3.2,4.1-6.6,6.9-10.1,8.4c-3.5,1.5-6.8,2.2-9.9,2.2c-6,0-10.4-1.6-13.3-4.9 c-2.9-3.3-3.9-7.3-2.9-12c1.4-6.4,4.7-11.3,10.1-14.6c5.4-3.3,12.6-5,21.8-5h9.1l0.3-1.2c0.9-4,0.3-6.9-1.5-8.6 c-1.9-1.7-4.9-2.5-8.9-2.5c-3.1,0-6.3,0.6-9.7,1.8c-3.4,1.2-6.4,2.7-9,4.6l2.3-12.9c2.1-1,5.4-2,9.8-2.9c4.4-0.9,8.1-1.4,11.2-1.4 c8.6,0,14.4,2,17.4,5.9c3,3.9,3.5,10.2,1.7,18.9l-3.2,15.2c-1.1,5-1.8,9.3-2.3,12.9c-0.5,3.6-0.7,5.4-0.6,5.4h-13.3 c-0.1,0-0.1-0.9,0.1-2.7C296.1,135.1,296.5,132.9,297.1,130.3z M299.7,114.3l0.2-1h-6.7c-5.5,0.1-9.7,1-12.6,2.5 c-2.9,1.5-4.7,3.9-5.3,7c-0.5,2.3-0.1,4.1,1.2,5.4c1.3,1.3,3.5,1.9,6.5,1.9c4.3,0,8-1.5,10.9-4.6 C296.9,122.3,298.8,118.6,299.7,114.3z"></path> <path fill="#172C36" d="M337.6,139.6h-14.7L335,82.7h13.1l-2.8,13.1c2.5-5.1,5.5-8.8,9-11c3.5-2.3,6.9-3.4,10.2-3.4l4.1,0.4 l-3.2,14.9c-0.5-0.3-1.3-0.6-2.3-0.8c-1-0.3-2.3-0.4-4-0.4c-4.2,0-7.7,1.8-10.4,5.4c-2.7,3.6-4.8,8.5-6.1,14.9L337.6,139.6z"></path> <path fill="#172C36" d="M401.5,130.3c-3.2,4.1-6.6,6.9-10.1,8.4c-3.5,1.5-6.8,2.2-9.9,2.2c-6,0-10.4-1.6-13.3-4.9 c-2.9-3.3-3.9-7.3-2.9-12c1.4-6.4,4.7-11.3,10.1-14.6c5.4-3.3,12.6-5,21.8-5h9.1l0.3-1.2c0.9-4,0.3-6.9-1.5-8.6 c-1.9-1.7-4.9-2.5-8.9-2.5c-3.1,0-6.3,0.6-9.7,1.8c-3.4,1.2-6.4,2.7-9,4.6l2.3-12.9c2.1-1,5.4-2,9.8-2.9c4.4-0.9,8.1-1.4,11.2-1.4 c8.6,0,14.4,2,17.4,5.9c3,3.9,3.5,10.2,1.7,18.9l-3.2,15.2c-1.1,5-1.8,9.3-2.3,12.9c-0.5,3.6-0.7,5.4-0.6,5.4h-13.3 c-0.1,0-0.1-0.9,0.1-2.7C400.5,135.1,400.9,132.9,401.5,130.3z M404.1,114.3l0.2-1h-6.7c-5.5,0.1-9.7,1-12.6,2.5s-4.7,3.9-5.3,7 c-0.5,2.3-0.1,4.1,1.2,5.4c1.3,1.3,3.5,1.9,6.5,1.9c4.3,0,8-1.5,10.9-4.6C401.2,122.3,403.2,118.6,404.1,114.3z"></path> <path fill="#172C36" d="M492.9,62.5h15.4L466,139.6h-19l-10.1-77.1h16.6l6.9,61.1L492.9,62.5z"></path> <path fill="#172C36" d="M515.8,139.6H501l12.1-56.9h14.8L515.8,139.6z M515.3,72.3l3-14.1h14.8l-3,14.1H515.3z"></path> <path fill="#172C36" d="M577.7,136.4c-2.8,1.4-5.8,2.5-9.1,3.3c-3.3,0.8-6.8,1.2-10.5,1.2c-9.9,0-16.9-2.6-21.1-7.7 c-4.2-5.2-5.2-12.6-3.2-22.2c1.9-8.9,5.8-16.1,11.7-21.5c5.9-5.4,12.9-8.1,20.9-8.1c9.6,0,15.8,2.9,18.8,8.7 c3,5.8,3.2,14.4,0.9,25.6h-39.4c-0.1,4.1,0.5,7.1,1.9,9.3c2.2,3.4,6,5.1,11.5,5.1c4,0,8-0.8,12-2.3c4-1.5,6.7-2.7,8.2-3.6 L577.7,136.4z M548.8,105.6h25.5c0.7-4.3,0.2-7.6-1.4-9.9c-1.6-2.3-4.3-3.5-8-3.5c-4.3,0-8,1.7-11.1,5 C551.8,99.2,550.2,102,548.8,105.6z"></path> <path fill="#172C36" d="M655.6,82.7l3.6,42.4L680,82.7h14.1l-29.4,56.9h-17.6l-3-44l-21.6,44h-16.9l-7.1-56.9h15.7l3.7,42.5 l20.6-42.5H655.6z"></path> </g> <polygon fill="#BE2128" points="61.6,154.4 24.2,154.4 54.9,38 92.4,38 "></polygon> <polygon fill="#249847" points="108.1,154.4 70.7,154.4 101.5,38 138.9,38 "></polygon> <polygon fill="#064F8C" points="154.7,154.4 117.3,154.4 148,38 185.5,38 "></polygon> </g> </svg>
